X:4543
L:1/8
Q:1/4=120
M:2/2
K:F
 A/B/ | c>d (c/d/c/A/) cA F(A/B/) | c>d (c/d/c/A/) BG- G(A/B/) | c>d c/d/c/A/ fdcA | c>dcA F3 :: 
 f/g/ | af c(f/g/) af c(e/f/) | ge c(e/f/) ge c(f/g/) | af c(f/g/) afge | f>gfd cA F"^*" :|

